Newaita-dark/.DP/32/octopi-error.svg

<svg xmlns="http://www.w3.org/2000/svg" xmlns:xlink="http://www.w3.org/1999/xlink" width="32px" height="32px" viewBox="0 0 32 32" version="1.1">
<g id="surface1">
<path style=" stroke:none;fill-rule:nonzero;fill:rgb(93.725491%,32.549021%,31.37255%);fill-opacity:1;" d="M 15.878906 2.894531 C 10.011719 2.894531 5.292969 8.207031 5.292969 14.804688 L 5.292969 25.386719 C 5.289062 26.089844 5.570312 26.765625 6.066406 27.261719 C 6.5625 27.757812 7.234375 28.035156 7.9375 28.035156 C 8.640625 28.035156 9.3125 27.757812 9.808594 27.261719 C 10.308594 26.765625 10.585938 26.089844 10.582031 25.386719 L 10.582031 22.742188 C 10.582031 22.390625 10.722656 22.054688 10.96875 21.804688 C 11.21875 21.558594 11.554688 21.417969 11.90625 21.417969 C 12.640625 21.417969 13.230469 22.007812 13.230469 22.742188 L 13.230469 25.386719 C 13.230469 26.855469 14.410156 28.035156 15.878906 28.035156 C 16.578125 28.035156 17.253906 27.757812 17.75 27.261719 C 18.246094 26.765625 18.523438 26.089844 18.523438 25.386719 L 18.523438 22.742188 C 18.523438 22.007812 19.113281 21.417969 19.847656 21.417969 C 20.199219 21.417969 20.535156 21.558594 20.78125 21.804688 C 21.03125 22.054688 21.171875 22.390625 21.167969 22.742188 L 21.167969 25.386719 C 21.167969 26.089844 21.445312 26.765625 21.941406 27.261719 C 22.4375 27.757812 23.113281 28.035156 23.816406 28.035156 C 24.515625 28.035156 25.191406 27.757812 25.6875 27.261719 C 26.183594 26.765625 26.460938 26.089844 26.460938 25.386719 L 26.460938 14.804688 C 26.460938 8.207031 21.738281 2.894531 15.878906 2.894531 Z M 11.90625 9.511719 C 13.371094 9.511719 14.554688 10.691406 14.554688 12.15625 C 14.554688 13.621094 13.371094 14.804688 11.90625 14.804688 C 11.203125 14.804688 10.53125 14.527344 10.035156 14.027344 C 9.539062 13.53125 9.257812 12.859375 9.261719 12.15625 C 9.261719 11.453125 9.539062 10.78125 10.035156 10.285156 C 10.53125 9.789062 11.203125 9.511719 11.90625 9.511719 Z M 19.847656 9.511719 C 21.3125 9.511719 22.492188 10.691406 22.492188 12.15625 C 22.492188 13.621094 21.3125 14.804688 19.847656 14.804688 C 19.144531 14.804688 18.46875 14.527344 17.972656 14.03125 C 17.476562 13.53125 17.199219 12.859375 17.199219 12.15625 C 17.199219 11.453125 17.476562 10.78125 17.972656 10.285156 C 18.472656 9.789062 19.144531 9.507812 19.847656 9.511719 Z M 12.566406 10.503906 C 11.65625 10.503906 10.914062 11.242188 10.914062 12.15625 C 10.914062 12.59375 11.085938 13.015625 11.398438 13.328125 C 11.707031 13.636719 12.128906 13.8125 12.566406 13.8125 C 13.007812 13.8125 13.429688 13.640625 13.738281 13.328125 C 14.050781 13.015625 14.226562 12.59375 14.222656 12.15625 C 14.222656 11.71875 14.050781 11.296875 13.738281 10.984375 C 13.429688 10.675781 13.007812 10.503906 12.566406 10.503906 Z M 20.507812 10.503906 C 20.070312 10.503906 19.648438 10.675781 19.339844 10.984375 C 19.027344 11.296875 18.855469 11.71875 18.855469 12.15625 C 18.851562 12.59375 19.027344 13.015625 19.335938 13.328125 C 19.648438 13.640625 20.070312 13.8125 20.507812 13.8125 C 21.425781 13.8125 22.160156 13.074219 22.160156 12.15625 C 22.160156 11.71875 21.988281 11.296875 21.679688 10.984375 C 21.367188 10.675781 20.945312 10.503906 20.507812 10.503906 Z M 20.507812 10.503906 "/>
</g>
</svg>

<svg xmlns="http://www.w3.org/2000/svg" width="32pt" height="32pt" viewBox="0 0 32 32"><path d="M15.875 2.895c-5.863 0-10.582 5.312-10.582 11.91v10.582a2.64 2.64 0 0 0 2.644 2.648 2.643 2.643 0 0 0 2.649-2.648v-2.645c0-.734.59-1.324 1.32-1.324.735 0 1.324.59 1.324 1.324v2.645a2.64 2.64 0 0 0 2.645 2.648 2.64 2.64 0 0 0 2.648-2.648v-2.645c0-.734.59-1.324 1.32-1.324.735 0 1.325.59 1.325 1.324v2.645a2.64 2.64 0 0 0 2.648 2.648 2.64 2.64 0 0 0 2.645-2.648V14.805c0-6.598-4.719-11.91-10.586-11.91zm-3.969 6.617a2.64 2.64 0 0 1 2.649 2.644 2.64 2.64 0 0 1-2.649 2.649 2.64 2.64 0 0 1-2.644-2.649 2.639 2.639 0 0 1 2.644-2.644zm7.938 0a2.64 2.64 0 0 1 2.648 2.644 2.64 2.64 0 0 1-2.648 2.649 2.64 2.64 0 0 1-2.645-2.649 2.639 2.639 0 0 1 2.645-2.644zm-7.274.992c-.918 0-1.656.738-1.656 1.652 0 .918.738 1.656 1.656 1.656.914 0 1.653-.738 1.653-1.656a1.65 1.65 0 0 0-1.653-1.652zm7.938 0c-.918 0-1.656.738-1.656 1.652 0 .918.738 1.656 1.656 1.656.914 0 1.652-.738 1.652-1.656a1.65 1.65 0 0 0-1.652-1.652zm0 0" fill="#ef5350"/></svg>
